assets/img/coolicon.svg

<svg width="10" height="10" viewBox="0 0 10 10" fill="none" xmlns="http://www.w3.org/2000/svg">
<path d="M5 10C2.23858 10 0 7.76142 0 5C0 2.23858 2.23858 0 5 0C7.76142 0 10 2.23858 10 5C9.99697 7.76017 7.76017 9.99697 5 10ZM1 5.086C1.02366 7.28662 2.82055 9.05477 5.02127 9.043C7.22198 9.03111 8.99977 7.24375 8.99977 5.043C8.99977 2.84225 7.22198 1.05489 5.02127 1.043C2.82055 1.03123 1.02366 2.79938 1 5V5.086ZM6 7.5H4.5V5.5H4V4.5H5.5V6.5H6V7.5ZM5.5 3.5H4.5V2.5H5.5V3.5Z" fill="#2E3A59"/>
</svg>

<svg width="10" height="10" fill="none" xmlns="http://www.w3.org/2000/svg"><path d="M5 10A5 5 0 1 1 5 0a5 5 0 0 1 0 10ZM1 5.086A4 4 0 1 0 1 5v.086ZM6 7.5H4.5v-2H4v-1h1.5v2H6v1Zm-.5-4h-1v-1h1v1Z" fill="#2E3A59"/></svg>
